X: 6130
T: Captain Kelly
R: reel
M: 4/4
K: Gmajor
G2GF GBDF|GBDB AGDF|Gz GF GA(3Bcd|egdB ADBA|
GBAF GBDF|GBDB AGDF|Gz GF GD(3Bcd egdB abgz||
~g2bg agbg|egDg egDg|~g2bg agbg|eafd ~g3z|
~g2bg agbg|egDg egDz|eBea f2df|gbaf GBDF||

